; generated by PrusaSlicer 2.3.3+win64 on 2021-10-08 at 17:07:35 UTC

; 

; external perimeters extrusion width = 0.45mm
; perimeters extrusion width = 0.45mm
; infill extrusion width = 0.45mm
; solid infill extrusion width = 0.45mm
; top infill extrusion width = 0.40mm
; first layer extrusion width = 0.42mm

M201 X9000 Y9000 Z500 E10000 ; sets maximum accelerations, mm/sec^2
M203 X500 Y500 Z12 E120 ; sets maximum feedrates, mm/sec
M204 P1500 R1500 T1500 ; sets acceleration (P, T) and retract acceleration (R), mm/sec^2
M205 X10.00 Y10.00 Z0.20 E2.50 ; sets the jerk limits, mm/sec
M205 S0 T0 ; sets the minimum extruding and travel feed rate, mm/sec
M107
M190 S105 ; set bed temperature and wait for it to be reached
M104 S225 ; set temperature
;TYPE:Custom
G28 ; home all axes
G1 Z5 F5000 ; lift nozzle
M109 S225 ; set temperature and wait for it to be reached
G21 ; set units to millimeters
G90 ; use absolute coordinates
M82 ; use absolute distances for extrusion
G92 E0
;LAYER_CHANGE
;Z:0.2
;HEIGHT:0.2
G1 Z0.200 F7200.000
G1 E-2.00000 F2400.000
G92 E0
G1 X115.909 Y55.655 F7200.000
G1 E2.00000 F2400.000
M204 S500
;TYPE:Skirt
;WIDTH:0.42
G1 F1200.000
G1 X116.870 Y55.271 E2.03244
G1 X117.893 Y55.126 E2.06485
G1 X182.004 Y55.123 E4.07501
G1 X182.874 Y55.214 E4.10243
G1 X183.531 Y55.406 E4.12389
G1 X184.300 Y55.776 E4.15064
G1 X185.055 Y56.366 E4.18067
G1 X185.621 Y57.046 E4.20843
G1 X185.954 Y57.634 E4.22960
G1 X186.247 Y58.440 E4.25650
G1 X186.372 Y59.348 E4.28524
G1 X186.377 Y140.532 E6.83070
G1 X186.178 Y141.801 E6.87098
G1 X185.890 Y142.503 E6.89477
G1 X185.569 Y143.024 E6.91396
G1 X184.954 Y143.728 E6.94326
G1 X184.079 Y144.351 E6.97696
G1 X183.108 Y144.734 E7.00968
G1 X182.066 Y144.875 E7.04266
G1 X117.959 Y144.877 E9.05267
G1 X116.699 Y144.678 E9.09268
G1 X115.997 Y144.390 E9.11647
G1 X115.476 Y144.069 E9.13566
G1 X114.769 Y143.451 E9.16510
G1 X114.147 Y142.575 E9.19880
G1 X113.764 Y141.604 E9.23152
G1 X113.625 Y140.557 E9.26464
G1 X113.623 Y59.468 E11.80711
G1 X113.822 Y58.199 E11.84739
G1 X114.110 Y57.497 E11.87119
G1 X114.431 Y56.976 E11.89038
G1 X115.042 Y56.275 E11.91953
G1 X115.860 Y55.690 E11.95107
G1 E9.95107 F2400.000
G92 E0
G1 X118.441 Y59.941 F7200.000
G1 E2.00000 F2400.000
;TYPE:Perimeter
G1 F1200.000
G1 X181.559 Y59.941 E3.97901
G1 X181.559 Y140.059 E6.49103
G1 X118.441 Y140.059 E8.47004
G1 X118.441 Y60.001 E10.98019
G1 X118.064 Y59.570 F7200.000
G1 F1200.000
G1 X181.935 Y59.565 E12.98282
G1 X181.935 Y140.435 E15.51845
G1 X118.065 Y140.435 E17.52106
G1 X118.064 Y59.630 E20.05466
G1 X117.783 Y59.283 F7200.000
G1 F1200.000
G1 X117.921 Y59.203 E20.05964
G1 X118.045 Y59.187 E20.06358
G1 X181.955 Y59.187 E22.06743
G1 X182.079 Y59.203 E22.07137
G1 X182.217 Y59.283 E22.07635
G1 X182.297 Y59.421 E22.08134
G1 X182.313 Y59.545 E22.08527
G1 X182.313 Y140.455 E24.62215
G1 X182.297 Y140.579 E24.62608
G1 X182.217 Y140.717 E24.63107
G1 X182.079 Y140.797 E24.63605
G1 X181.955 Y140.813 E24.63999
G1 X118.045 Y140.813 E26.64384
G1 X117.921 Y140.797 E26.64777
G1 X117.783 Y140.717 E26.65276
G1 X117.703 Y140.579 E26.65774
G1 X117.687 Y140.455 E26.66168
G1 X117.687 Y59.545 E29.19855
G1 X117.703 Y59.421 E29.20249
G1 X117.746 Y59.331 E29.20561
G1 X117.405 Y59.156 F7200.000
;TYPE:External perimeter
G1 F1200.000
G1 X117.514 Y59.014 E29.21124
G1 X117.656 Y58.905 E29.21687
G1 X117.822 Y58.836 E29.22249
G1 X118.020 Y58.810 E29.22876
G1 X181.980 Y58.810 E31.23416
G1 X182.178 Y58.836 E31.24043
G1 X182.344 Y58.905 E31.24605
G1 X182.486 Y59.014 E31.25168
G1 X182.595 Y59.156 E31.25731
G1 X182.664 Y59.322 E31.26293
G1 X182.690 Y59.520 E31.26920
G1 X182.690 Y140.480 E33.80762
G1 X182.664 Y140.678 E33.81389
G1 X182.595 Y140.844 E33.81952
G1 X182.486 Y140.986 E33.82514
G1 X182.344 Y141.095 E33.83077
G1 X182.178 Y141.164 E33.83640
G1 X181.980 Y141.190 E33.84266
G1 X118.020 Y141.190 E35.84807
G1 X117.822 Y141.164 E35.85433
G1 X117.656 Y141.095 E35.85996
G1 X117.514 Y140.986 E35.86559
G1 X117.405 Y140.844 E35.87121
G1 X117.336 Y140.678 E35.87684
G1 X117.310 Y140.480 E35.88311
G1 X117.310 Y59.520 E38.42153
G1 X117.336 Y59.322 E38.42780
G1 X117.382 Y59.212 E38.43154
G1 X117.584 Y59.156 F7200.000
G1 E36.43154 F2400.000
G92 E0
G1 X180.681 Y60.054 F7200.000
G1 E2.00000 F2400.000
;TYPE:Solid infill
;WIDTH:0.421256
G1 F1200.000
G1 X181.276 Y60.650 E2.02648
G1 X181.276 Y61.185 E2.04331
G1 X180.315 Y60.224 E2.08605
G1 X179.780 Y60.224 E2.10288
G1 X181.276 Y61.720 E2.16942
G1 X181.276 Y62.255 E2.18626
G1 X179.245 Y60.224 E2.27660
G1 X178.710 Y60.224 E2.29343
G1 X181.276 Y62.790 E2.40758
G1 X181.276 Y63.325 E2.42441
G1 X178.175 Y60.224 E2.56237
G1 X177.640 Y60.224 E2.57920
G1 X181.276 Y63.860 E2.74096
G1 X181.276 Y64.395 E2.75779
G1 X177.105 Y60.224 E2.94335
G1 X176.570 Y60.224 E2.96018
G1 X181.276 Y64.930 E3.16955
G1 X181.276 Y65.465 E3.18638
G1 X176.035 Y60.224 E3.41955
G1 X175.500 Y60.224 E3.43638
G1 X181.276 Y66.000 E3.69335
G1 X181.276 Y66.535 E3.71018
G1 X174.965 Y60.224 E3.99096
G1 X174.430 Y60.224 E4.00779
G1 X181.276 Y67.070 E4.31237
G1 X181.276 Y67.605 E4.32920
G1 X173.895 Y60.224 E4.65759
G1 X173.360 Y60.224 E4.67442
G1 X181.276 Y68.140 E5.02661
G1 X181.276 Y68.675 E5.04344
G1 X172.825 Y60.224 E5.41943
G1 X172.290 Y60.224 E5.43627
G1 X181.276 Y69.210 E5.83606
G1 X181.276 Y69.745 E5.85290
G1 X171.755 Y60.224 E6.27650
G1 X171.220 Y60.224 E6.29333
G1 X181.276 Y70.280 E6.74073
G1 X181.276 Y70.816 E6.75756
G1 X170.684 Y60.224 E7.22877
G1 X170.149 Y60.224 E7.24560
G1 X181.276 Y71.351 E7.74062
G1 X181.276 Y71.886 E7.75745
G1 X169.614 Y60.224 E8.27627
G1 X169.079 Y60.224 E8.29310
G1 X181.276 Y72.421 E8.83572
G1 X181.276 Y72.956 E8.85255
G1 X168.544 Y60.224 E9.41897
G1 X168.009 Y60.224 E9.43581
G1 X181.276 Y73.491 E10.02603
G1 X181.276 Y74.026 E10.04287
G1 X167.474 Y60.224 E10.65690
G1 X166.939 Y60.224 E10.67373
G1 X181.276 Y74.561 E11.31157
G1 X181.276 Y75.096 E11.32840
G1 X166.404 Y60.224 E11.99004
G1 X165.869 Y60.224 E12.00687
G1 X181.276 Y75.631 E12.69232
G1 X181.276 Y76.166 E12.70915
G1 X165.334 Y60.224 E13.41840
G1 X164.799 Y60.224 E13.43523
G1 X181.276 Y76.701 E14.16828
G1 X181.276 Y77.236 E14.18511
G1 X164.264 Y60.224 E14.94197
G1 X163.729 Y60.224 E14.95880
G1 X181.276 Y77.771 E15.73946
G1 X181.276 Y78.306 E15.75629
G1 X163.194 Y60.224 E16.56076
G1 X162.659 Y60.224 E16.57759
G1 X181.276 Y78.841 E17.40586
G1 X181.276 Y79.376 E17.42269
G1 X162.124 Y60.224 E18.27476
G1 X161.589 Y60.224 E18.29159
G1 X181.276 Y79.911 E19.16747
G1 X181.276 Y80.446 E19.18430
G1 X161.054 Y60.224 E20.08398
G1 X160.519 Y60.224 E20.10081
G1 X181.276 Y80.981 E21.02430
G1 X181.276 Y81.516 E21.04113
G1 X159.984 Y60.224 E21.98842
G1 X159.448 Y60.224 E22.00525
G1 X181.276 Y82.052 E22.97634
G1 X181.276 Y82.587 E22.99317
G1 X158.913 Y60.224 E23.98807
G1 X158.378 Y60.224 E24.00490
G1 X181.276 Y83.122 E25.02360
G1 X181.276 Y83.657 E25.04043
G1 X157.843 Y60.224 E26.08294
G1 X157.308 Y60.224 E26.09977
G1 X181.276 Y84.192 E27.16607
G1 X181.276 Y84.727 E27.18291
G1 X156.773 Y60.224 E28.27302
G1 X156.238 Y60.224 E28.28985
G1 X181.276 Y85.262 E29.40377
G1 X181.276 Y85.797 E29.42060
G1 X155.703 Y60.224 E30.55832
G1 X155.168 Y60.224 E30.57515
G1 X181.276 Y86.332 E31.73667
G1 X181.276 Y86.867 E31.75351
G1 X154.633 Y60.224 E32.93883
G1 X154.098 Y60.224 E32.95566
G1 X181.276 Y87.402 E34.16480
G1 X181.276 Y87.937 E34.18163
G1 X153.563 Y60.224 E35.41456
G1 X153.028 Y60.224 E35.43140
G1 X181.276 Y88.472 E36.68814
G1 X181.276 Y89.007 E36.70497
G1 X152.493 Y60.224 E37.98551
G1 X151.958 Y60.224 E38.00234
G1 X181.276 Y89.542 E39.30669
G1 X181.276 Y90.077 E39.32352
G1 X151.423 Y60.224 E40.65167
G1 X150.888 Y60.224 E40.66851
G1 X181.276 Y90.612 E42.02046
G1 X181.276 Y91.147 E42.03729
G1 X150.353 Y60.224 E43.41305
G1 X149.818 Y60.224 E43.42988
G1 X181.276 Y91.682 E44.82945
G1 X181.276 Y92.217 E44.84628
G1 X149.283 Y60.224 E46.26965
G1 X148.748 Y60.224 E46.28648
G1 X181.276 Y92.752 E47.73365
G1 X181.276 Y93.288 E47.75048
G1 X148.212 Y60.224 E49.22146
G1 X147.677 Y60.224 E49.23829
G1 X181.276 Y93.823 E50.73307
G1 X181.276 Y94.358 E50.74990
G1 X147.142 Y60.224 E52.26848
G1 X146.607 Y60.224 E52.28531
G1 X181.276 Y94.893 E53.82770
G1 X181.276 Y95.428 E53.84453
G1 X146.072 Y60.224 E55.41072
G1 X145.537 Y60.224 E55.42756
G1 X181.276 Y95.963 E57.01755
G1 X181.276 Y96.498 E57.03438
G1 X145.002 Y60.224 E58.64818
G1 X144.467 Y60.224 E58.66501
G1 X181.276 Y97.033 E60.30262
G1 X181.276 Y97.568 E60.31945
G1 X143.932 Y60.224 E61.98086
G1 X143.397 Y60.224 E61.99769
G1 X181.276 Y98.103 E63.68290
G1 X181.276 Y98.638 E63.69973
G1 X142.862 Y60.224 E65.40875
G1 X142.327 Y60.224 E65.42558
G1 X181.276 Y99.173 E67.15840
G1 X181.276 Y99.708 E67.17523
G1 X141.792 Y60.224 E68.93185
G1 X141.257 Y60.224 E68.94868
G1 X181.276 Y100.243 E70.72911
G1 X181.276 Y100.778 E70.74594
G1 X140.722 Y60.224 E72.55017
G1 X140.187 Y60.224 E72.56700
G1 X181.276 Y101.313 E74.39504
G1 X181.276 Y101.848 E74.41187
G1 X139.652 Y60.224 E76.26371
G1 X139.117 Y60.224 E76.28054
G1 X181.276 Y102.383 E78.15619
G1 X181.276 Y102.918 E78.17302
G1 X138.582 Y60.224 E80.07246
G1 X138.047 Y60.224 E80.08930
G1 X181.276 Y103.453 E82.01255
G1 X181.276 Y103.988 E82.02938
G1 X137.512 Y60.224 E83.97643
G1 X136.976 Y60.224 E83.99326
G1 X181.276 Y104.524 E85.96412
G1 X181.276 Y105.059 E85.98096
G1 X136.441 Y60.224 E87.97562
G1 X135.906 Y60.224 E87.99245
G1 X181.276 Y105.594 E90.01092
G1 X181.276 Y106.129 E90.02775
G1 X135.371 Y60.224 E92.07002
G1 X134.836 Y60.224 E92.08685
G1 X181.276 Y106.664 E94.15292
G1 X181.276 Y107.199 E94.16976
G1 X134.301 Y60.224 E96.25964
G1 X133.766 Y60.224 E96.27647
G1 X181.276 Y107.734 E98.39015
G1 X181.276 Y108.269 E98.40698
G1 X133.231 Y60.224 E100.54447
G1 X132.696 Y60.224 E100.56130
G1 X181.276 Y108.804 E102.72259
G1 X181.276 Y109.339 E102.73942
G1 X132.161 Y60.224 E104.92452
G1 X131.626 Y60.224 E104.94135
G1 X181.276 Y109.874 E107.15025
G1 X181.276 Y110.409 E107.16708
G1 X131.091 Y60.224 E109.39978
G1 X130.556 Y60.224 E109.41661
G1 X181.276 Y110.944 E111.67312
G1 X181.276 Y111.479 E111.68995
G1 X130.021 Y60.224 E113.97026
G1 X129.486 Y60.224 E113.98709
G1 X181.276 Y112.014 E116.29121
G1 X181.276 Y112.549 E116.30804
G1 X128.951 Y60.224 E118.63596
G1 X128.416 Y60.224 E118.65279
G1 X181.276 Y113.084 E121.00451
G1 X181.276 Y113.619 E121.02134
G1 X127.881 Y60.224 E123.39687
G1 X127.346 Y60.224 E123.41370
G1 X181.276 Y114.154 E125.81303
G1 X181.276 Y114.689 E125.82986
G1 X126.811 Y60.224 E128.25300
G1 X126.276 Y60.224 E128.26983
G1 X181.276 Y115.224 E130.71677
G1 X181.276 Y115.760 E130.73360
G1 X125.740 Y60.224 E133.20434
G1 X125.205 Y60.224 E133.22117
G1 X181.276 Y116.295 E135.71572
G1 X181.276 Y116.830 E135.73255
G1 X124.670 Y60.224 E138.25090
G1 X124.135 Y60.224 E138.26773
G1 X181.276 Y117.365 E140.80989
G1 X181.276 Y117.900 E140.82672
G1 X123.600 Y60.224 E143.39268
G1 X123.065 Y60.224 E143.40951
G1 X181.276 Y118.435 E145.99927
G1 X181.276 Y118.970 E146.01610
G1 X122.530 Y60.224 E148.62967
G1 X121.995 Y60.224 E148.64650
G1 X181.276 Y119.505 E151.28387
G1 X181.276 Y120.040 E151.30070
G1 X121.460 Y60.224 E153.96187
G1 X120.925 Y60.224 E153.97871
G1 X181.276 Y120.575 E156.66368
G1 X181.276 Y121.110 E156.68052
G1 X120.390 Y60.224 E159.38930
G1 X119.855 Y60.224 E159.40613
G1 X181.276 Y121.645 E162.13871
G1 X181.276 Y122.180 E162.15555
G1 X119.320 Y60.224 E164.91194
G1 X118.785 Y60.224 E164.92877
G1 X181.276 Y122.715 E167.70896
G1 X181.276 Y123.250 E167.72579
G1 X118.724 Y60.698 E170.50869
G1 X118.724 Y61.233 E170.52552
G1 X181.276 Y123.785 E173.30842
G1 X181.276 Y124.320 E173.32525
G1 X118.724 Y61.768 E176.10815
G1 X118.724 Y62.303 E176.12499
G1 X181.276 Y124.855 E178.90788
G1 X181.276 Y125.390 E178.92472
G1 X118.724 Y62.838 E181.70762
G1 X118.724 Y63.374 E181.72445
G1 X181.276 Y125.925 E184.50735
G1 X181.276 Y126.460 E184.52418
G1 X118.724 Y63.909 E187.30708
G1 X118.724 Y64.444 E187.32391
G1 X181.276 Y126.996 E190.10681
G1 X181.276 Y127.531 E190.12364
G1 X118.724 Y64.979 E192.90654
G1 X118.724 Y65.514 E192.92337
G1 X181.276 Y128.066 E195.70627
G1 X181.276 Y128.601 E195.72310
G1 X118.724 Y66.049 E198.50600
G1 X118.724 Y66.584 E198.52283
G1 X181.276 Y129.136 E201.30573
G1 X181.276 Y129.671 E201.32256
G1 X118.724 Y67.119 E204.10546
G1 X118.724 Y67.654 E204.12229
G1 X181.276 Y130.206 E206.90519
G1 X181.276 Y130.741 E206.92202
G1 X118.724 Y68.189 E209.70492
G1 X118.724 Y68.724 E209.72175
G1 X181.276 Y131.276 E212.50465
G1 X181.276 Y131.811 E212.52149
G1 X118.724 Y69.259 E215.30438
G1 X118.724 Y69.794 E215.32122
G1 X181.276 Y132.346 E218.10411
G1 X181.276 Y132.881 E218.12095
G1 X118.724 Y70.329 E220.90385
G1 X118.724 Y70.864 E220.92068
G1 X181.276 Y133.416 E223.70358
G1 X181.276 Y133.951 E223.72041
G1 X118.724 Y71.399 E226.50331
G1 X118.724 Y71.934 E226.52014
G1 X181.276 Y134.486 E229.30304
G1 X181.276 Y135.021 E229.31987
G1 X118.724 Y72.469 E232.10277
G1 X118.724 Y73.004 E232.11960
G1 X181.276 Y135.556 E234.90250
G1 X181.276 Y136.091 E234.91933
G1 X118.724 Y73.539 E237.70223
G1 X118.724 Y74.074 E237.71906
G1 X181.276 Y136.626 E240.50196
G1 X181.276 Y137.161 E240.51879
G1 X118.724 Y74.610 E243.30169
G1 X118.724 Y75.145 E243.31852
G1 X181.276 Y137.696 E246.10142
G1 X181.276 Y138.232 E246.11825
G1 X118.724 Y75.680 E248.90115
G1 X118.724 Y76.215 E248.91798
G1 X181.276 Y138.767 E251.70088
G1 X181.276 Y139.302 E251.71772
G1 X118.724 Y76.750 E254.50061
G1 X118.724 Y77.285 E254.51745
G1 X181.215 Y139.776 E257.29764
G1 X180.680 Y139.776 E257.31448
G1 X118.724 Y77.820 E260.07087
G1 X118.724 Y78.355 E260.08770
G1 X180.145 Y139.776 E262.82029
G1 X179.610 Y139.776 E262.83712
G1 X118.724 Y78.890 E265.54591
G1 X118.724 Y79.425 E265.56274
G1 X179.075 Y139.776 E268.24772
G1 X178.540 Y139.776 E268.26455
G1 X118.724 Y79.960 E270.92573
G1 X118.724 Y80.495 E270.94256
G1 X178.005 Y139.776 E273.57993
G1 X177.470 Y139.776 E273.59677
G1 X118.724 Y81.030 E276.21034
G1 X118.724 Y81.565 E276.22717
G1 X176.935 Y139.776 E278.81693
G1 X176.400 Y139.776 E278.83376
G1 X118.724 Y82.100 E281.39973
G1 X118.724 Y82.635 E281.41656
G1 X175.865 Y139.776 E283.95872
G1 X175.330 Y139.776 E283.97555
G1 X118.724 Y83.170 E286.49390
G1 X118.724 Y83.705 E286.51073
G1 X174.795 Y139.776 E289.00528
G1 X174.260 Y139.776 E289.02211
G1 X118.724 Y84.240 E291.49286
G1 X118.724 Y84.775 E291.50969
G1 X173.725 Y139.776 E293.95663
G1 X173.190 Y139.776 E293.97347
G1 X118.724 Y85.310 E296.39660
G1 X118.724 Y85.846 E296.41343
G1 X172.654 Y139.776 E298.81277
G1 X172.119 Y139.776 E298.82960
G1 X118.724 Y86.381 E301.20513
G1 X118.724 Y86.916 E301.22196
G1 X171.584 Y139.776 E303.57369
G1 X171.049 Y139.776 E303.59052
G1 X118.724 Y87.451 E305.91844
G1 X118.724 Y87.986 E305.93527
G1 X170.514 Y139.776 E308.23939
G1 X169.979 Y139.776 E308.25622
G1 X118.724 Y88.521 E310.53654
G1 X118.724 Y89.056 E310.55337
G1 X169.444 Y139.776 E312.80988
G1 X168.909 Y139.776 E312.82671
G1 X118.724 Y89.591 E315.05942
G1 X118.724 Y90.126 E315.07625
G1 X168.374 Y139.776 E317.28515
G1 X167.839 Y139.776 E317.30198
G1 X118.724 Y90.661 E319.48708
G1 X118.724 Y91.196 E319.50391
G1 X167.304 Y139.776 E321.66521
G1 X166.769 Y139.776 E321.68204
G1 X118.724 Y91.731 E323.81953
G1 X118.724 Y92.266 E323.83636
G1 X166.234 Y139.776 E325.95005
G1 X165.699 Y139.776 E325.96688
G1 X118.724 Y92.801 E328.05676
G1 X118.724 Y93.336 E328.07359
G1 X165.164 Y139.776 E330.13967
G1 X164.629 Y139.776 E330.15650
G1 X118.724 Y93.871 E332.19878
G1 X118.724 Y94.406 E332.21561
G1 X164.094 Y139.776 E334.23408
G1 X163.559 Y139.776 E334.25091
G1 X118.724 Y94.941 E336.24558
G1 X118.724 Y95.476 E336.26241
G1 X163.024 Y139.776 E338.23327
G1 X162.489 Y139.776 E338.25010
G1 X118.724 Y96.011 E340.19716
G1 X118.724 Y96.546 E340.21399
G1 X161.954 Y139.776 E342.13725
G1 X161.418 Y139.776 E342.15408
G1 X118.724 Y97.082 E344.05353
G1 X118.724 Y97.617 E344.07036
G1 X160.883 Y139.776 E345.94601
G1 X160.348 Y139.776 E345.96284
G1 X118.724 Y98.152 E347.81468
G1 X118.724 Y98.687 E347.83151
G1 X159.813 Y139.776 E349.65955
G1 X159.278 Y139.776 E349.67638
G1 X118.724 Y99.222 E351.48062
G1 X118.724 Y99.757 E351.49745
G1 X158.743 Y139.776 E353.27788
