; generated by PrusaSlicer 2.3.3+win64 on 2021-10-08 at 17:10:04 UTC

; 

; external perimeters extrusion width = 0.45mm
; perimeters extrusion width = 0.45mm
; infill extrusion width = 0.45mm
; solid infill extrusion width = 0.45mm
; top infill extrusion width = 0.40mm
; first layer extrusion width = 0.42mm

M201 X9000 Y9000 Z500 E10000 ; sets maximum accelerations, mm/sec^2
M203 X500 Y500 Z12 E120 ; sets maximum feedrates, mm/sec
M204 P1500 R1500 T1500 ; sets acceleration (P, T) and retract acceleration (R), mm/sec^2
M205 X10.00 Y10.00 Z0.20 E2.50 ; sets the jerk limits, mm/sec
M205 S0 T0 ; sets the minimum extruding and travel feed rate, mm/sec
M107
M190 S105 ; set bed temperature and wait for it to be reached
M104 S225 ; set temperature
;TYPE:Custom
G28 ; home all axes
G1 Z5 F5000 ; lift nozzle
M109 S225 ; set temperature and wait for it to be reached
G21 ; set units to millimeters
G90 ; use absolute coordinates
M82 ; use absolute distances for extrusion
G92 E0
;LAYER_CHANGE
;Z:0.2
;HEIGHT:0.2
G1 Z0.200 F7200.000
G1 E-2.00000 F2400.000
G92 E0
G1 X115.789 Y59.476 F7200.000
G1 E2.00000 F2400.000
M204 S500
;TYPE:Skirt
;WIDTH:0.42
G1 F1200.000
G1 X116.239 Y58.568 E2.03177
G1 X116.764 Y57.980 E2.05648
G1 X117.410 Y57.529 E2.08119
G1 X118.144 Y57.240 E2.10590
G1 X118.924 Y57.129 E2.13062
G1 X176.710 Y57.119 E3.94247
G1 X181.151 Y57.132 E4.08171
G1 X182.264 Y57.376 E4.11741
G1 X183.067 Y57.839 E4.14650
G1 X183.715 Y58.504 E4.17559
G1 X184.157 Y59.320 E4.20468
G1 X184.360 Y60.225 E4.23377
G1 X184.372 Y139.519 E6.71999
G1 X184.211 Y140.524 E6.75190
G1 X183.761 Y141.432 E6.78366
G1 X183.229 Y142.026 E6.80866
G1 X182.570 Y142.482 E6.83380
G1 X181.825 Y142.768 E6.85879
G1 X181.035 Y142.871 E6.88379
G1 X118.976 Y142.871 E8.82962
G1 X117.975 Y142.711 E8.86138
G1 X117.068 Y142.260 E8.89315
G1 X116.470 Y141.726 E8.91829
G1 X116.016 Y141.065 E8.94342
G1 X115.730 Y140.316 E8.96856
G1 X115.629 Y139.526 E8.99355
G1 X115.629 Y60.480 E11.47196
G1 X115.780 Y59.535 E11.50198
G1 E9.50198 F2400.000
G92 E0
G1 X146.464 Y90.778 F7200.000
G1 E2.00000 F2400.000
;TYPE:Perimeter
G1 F1200.000
G1 X146.737 Y91.128 E2.01390
G1 X146.464 Y91.128 E2.02245
G1 X146.464 Y90.838 E2.03152
G1 E0.03152 F2400.000
G92 E0
G1 X155.673 Y88.183 F7200.000
G1 E2.00000 F2400.000
G1 F1200.000
G1 X155.741 Y88.128 E2.00274
G1 X155.921 Y88.043 E2.00898
G1 X156.061 Y88.025 E2.01341
G1 X156.301 Y88.068 E2.02107
G1 X156.405 Y88.133 E2.02490
G1 X155.733 Y88.179 E2.04604
G1 E0.04604 F2400.000
G92 E0
G1 X162.197 Y88.183 F7200.000
G1 E2.00000 F2400.000
G1 F1200.000
G1 X162.265 Y88.128 E2.00274
G1 X162.444 Y88.043 E2.00898
G1 X162.585 Y88.025 E2.01341
G1 X162.825 Y88.068 E2.02107
G1 X162.929 Y88.133 E2.02490
G1 X162.257 Y88.179 E2.04603
G1 E0.04603 F2400.000
G92 E0
G1 X165.260 Y88.944 F7200.000
G1 E2.00000 F2400.000
G1 F1200.000
G1 X165.835 Y89.105 E2.01873
G1 X165.241 Y89.261 E2.03796
G1 X165.258 Y89.004 E2.04603
G1 X166.294 Y89.075 F7200.000
G1 F1200.000
G1 X166.465 Y88.396 E2.06799
G1 X166.510 Y88.278 E2.07195
G1 X166.626 Y88.107 E2.07842
G1 X166.705 Y88.058 E2.08133
G1 X166.886 Y88.029 E2.08708
G1 X167.073 Y88.065 E2.09305
G1 X167.203 Y88.164 E2.09819
G1 X167.285 Y88.314 E2.10354
G1 X167.357 Y88.508 E2.11003
G1 X167.387 Y88.717 E2.11665
G1 X167.386 Y89.288 E2.13457
G1 X167.355 Y89.492 E2.14103
G1 X167.282 Y89.680 E2.14736
G1 X167.198 Y89.827 E2.15266
G1 X167.052 Y89.935 E2.15836
G1 X166.958 Y89.961 E2.16141
G1 X166.845 Y89.974 E2.16499
G1 X166.730 Y89.956 E2.16864
G1 X166.660 Y89.916 E2.17115
G1 X166.572 Y89.804 E2.17563
G1 X166.315 Y89.131 E2.19822
G1 E0.19822 F2400.000
G92 E0
G1 X179.233 Y108.238 F7200.000
G1 E2.00000 F2400.000
G1 F1200.000
G1 X179.266 Y120.300 E2.37820
G1 X179.233 Y132.362 E2.75641
G1 X168.755 Y132.396 E3.08494
G1 X158.085 Y132.396 E3.41946
G1 X147.607 Y132.362 E3.74799
G1 X147.574 Y120.300 E4.12620
G1 X147.607 Y108.238 E4.50440
G1 X158.085 Y108.204 E4.83293
G1 X168.755 Y108.204 E5.16745
G1 X179.173 Y108.238 E5.49410
G1 X178.856 Y108.614 F7200.000
;TYPE:External perimeter
G1 F1200.000
G1 X178.889 Y120.300 E5.86052
G1 X178.856 Y131.986 E6.22694
G1 X168.754 Y132.019 E6.54370
G1 X158.086 Y132.019 E6.87819
G1 X147.984 Y131.986 E7.19495
G1 X147.951 Y120.300 E7.56136
G1 X147.984 Y108.614 E7.92778
G1 X158.086 Y108.581 E8.24454
G1 X168.754 Y108.581 E8.57903
G1 X178.796 Y108.613 E8.89391
G1 X179.256 Y108.613 F7200.000
G1 E6.89391 F2400.000
G92 E0
G1 X166.904 Y89.583 F7200.000
G1 E2.00000 F2400.000
;TYPE:Perimeter
G1 F1200.000
G1 X166.689 Y89.052 E2.01798
G1 X166.825 Y88.510 E2.03549
G1 X166.868 Y88.414 E2.03881
G1 X166.894 Y88.409 E2.03962
G1 X166.941 Y88.471 E2.04205
G1 X166.990 Y88.601 E2.04642
G1 X167.010 Y88.744 E2.05093
G1 X167.009 Y89.259 E2.06710
G1 X166.989 Y89.394 E2.07138
G1 X166.933 Y89.531 E2.07600
G1 E0.07600 F2400.000
G92 E0
G1 X171.045 Y85.371 F7200.000
G1 E2.00000 F2400.000
G1 F1200.000
G1 X171.752 Y87.204 E2.06160
G1 X172.261 Y87.204 E2.07756
G1 X172.920 Y85.387 E2.13817
G1 X176.871 Y85.387 E2.26205
G1 X173.460 Y94.269 E2.56039
G1 X170.646 Y94.269 E2.64860
G1 X169.509 Y91.489 E2.74278
G1 X169.401 Y91.639 E2.74858
G1 X169.024 Y91.980 E2.76452
G1 X168.617 Y92.266 E2.78011
G1 X168.184 Y92.462 E2.79503
G1 X167.754 Y92.609 E2.80926
G1 X167.308 Y92.685 E2.82347
G1 X166.865 Y92.718 E2.83739
G1 X166.364 Y92.682 E2.85313
G1 X165.825 Y92.579 E2.87033
G1 X165.307 Y92.355 E2.88804
G1 X164.746 Y91.998 E2.90887
G1 X164.642 Y92.092 E2.91330
G1 X164.002 Y92.471 E2.93663
G1 X163.313 Y92.652 E2.95894
G1 X162.641 Y92.722 E2.98013
G1 X161.980 Y92.651 E3.00098
G1 X161.308 Y92.474 E3.02277
G1 X161.222 Y92.424 E3.02590
G1 X161.226 Y94.269 E3.08376
G1 X157.602 Y94.269 E3.19739
G1 X157.604 Y92.396 E3.25611
G1 X157.471 Y92.474 E3.26094
G1 X156.789 Y92.652 E3.28305
G1 X156.117 Y92.722 E3.30422
G1 X155.456 Y92.651 E3.32507
G1 X154.784 Y92.474 E3.34686
G1 X154.659 Y92.401 E3.35139
G1 X154.656 Y92.701 E3.36080
G1 X152.768 Y92.558 E3.42017
G1 X152.351 Y92.495 E3.43337
G1 X151.802 Y92.719 E3.45197
G1 X151.071 Y92.601 E3.47519
G1 X150.851 Y92.927 E3.48753
G1 X149.819 Y94.302 E3.54142
G1 X147.596 Y94.301 E3.61111
G1 X146.534 Y92.889 E3.66650
G1 X146.380 Y92.633 E3.67587
G1 X145.291 Y92.574 E3.71009
G1 X144.830 Y92.482 E3.72480
G1 X144.738 Y92.543 E3.72826
G1 X143.935 Y92.702 E3.75392
G1 X143.491 Y92.696 E3.76785
G1 X143.066 Y92.636 E3.78131
G1 X142.661 Y92.499 E3.79472
G1 X142.511 Y92.427 E3.79991
G1 X142.340 Y92.506 E3.80584
G1 X141.964 Y92.614 E3.81810
G1 X141.307 Y92.723 E3.83898
G1 X140.762 Y92.683 E3.85612
G1 X140.220 Y92.566 E3.87348
G1 X139.712 Y92.309 E3.89135
G1 X139.207 Y91.939 E3.91097
G1 X138.990 Y92.117 E3.91977
G1 X138.374 Y92.474 E3.94208
G1 X137.692 Y92.652 E3.96418
G1 X137.020 Y92.722 E3.98536
G1 X136.359 Y92.651 E4.00622
G1 X136.000 Y92.556 E4.01787
G1 X136.000 Y92.578 E4.01854
G1 X135.451 Y92.588 E4.03576
G1 X135.451 Y93.064 E4.05068
G1 X133.301 Y94.362 E4.12942
G1 X131.832 Y93.532 E4.18230
G1 X131.837 Y92.517 E4.21413
G1 X131.492 Y92.538 E4.22494
G1 X130.907 Y92.503 E4.24334
G1 X130.376 Y92.719 E4.26129
G1 X129.433 Y92.567 E4.29124
G1 X128.859 Y92.319 E4.31085
G1 X128.505 Y92.511 E4.32348
G1 X127.868 Y92.663 E4.34400
G1 X127.256 Y92.721 E4.36329
G1 X126.601 Y92.655 E4.38393
G1 X125.927 Y92.484 E4.40573
G1 X125.316 Y92.142 E4.42769
G1 X124.737 Y91.687 E4.45077
G1 X124.296 Y91.056 E4.47490
G1 X123.977 Y90.407 E4.49758
G1 X123.830 Y89.712 E4.51986
G1 X123.784 Y89.093 E4.53932
G1 X123.799 Y88.619 E4.55419
G1 X123.854 Y88.123 E4.56983
G1 X123.984 Y87.627 E4.58590
G1 X124.181 Y87.095 E4.60371
G1 X124.454 Y86.671 E4.61951
G1 X124.755 Y86.300 E4.63448
G1 X125.120 Y85.993 E4.64944
G1 X125.507 Y85.732 E4.66408
G1 X125.931 Y85.541 E4.67867
G1 X126.374 Y85.390 E4.69335
G1 X126.884 Y85.312 E4.70951
G1 X127.278 Y85.283 E4.72189
G1 X127.917 Y85.345 E4.74203
G1 X128.594 Y85.514 E4.76390
G1 X129.210 Y85.856 E4.78600
G1 X129.661 Y86.208 E4.80393
G1 X129.672 Y85.318 E4.83184
G1 X131.613 Y85.427 E4.89279
G1 X132.149 Y85.524 E4.90988
G1 X132.244 Y85.478 E4.91319
G1 X132.633 Y85.381 E4.92574
G1 X132.942 Y85.360 E4.93545
G1 X133.539 Y85.360 E4.95416
G1 X134.289 Y85.606 E4.97894
G1 X134.801 Y85.998 E4.99915
G1 X134.864 Y85.937 E5.00188
G1 X135.394 Y85.635 E5.02102
G1 X135.933 Y85.415 E5.03927
G1 X136.555 Y85.314 E5.05903
G1 X136.997 Y85.284 E5.07292
G1 X137.636 Y85.341 E5.09303
G1 X138.323 Y85.506 E5.11518
G1 X138.441 Y85.570 E5.11939
G1 X138.438 Y85.387 E5.12513
G1 X147.246 Y85.387 E5.40129
G1 X147.244 Y85.592 E5.40772
G1 X147.800 Y85.390 E5.42628
G1 X148.309 Y85.312 E5.44244
G1 X148.703 Y85.283 E5.45482
G1 X149.343 Y85.345 E5.47496
G1 X150.020 Y85.514 E5.49684
G1 X150.636 Y85.856 E5.51893
G1 X151.072 Y86.197 E5.53629
G1 X151.072 Y85.386 E5.56173
G1 X154.723 Y85.388 E5.67621
G1 X154.719 Y85.542 E5.68103
G1 X155.030 Y85.415 E5.69156
G1 X155.652 Y85.314 E5.71131
G1 X156.094 Y85.284 E5.72520
G1 X156.733 Y85.341 E5.74531
G1 X157.420 Y85.506 E5.76746
G1 X157.601 Y85.605 E5.77395
G1 X157.601 Y85.385 E5.78083
G1 X161.257 Y85.389 E5.89545
G1 X161.253 Y85.538 E5.90012
G1 X161.554 Y85.415 E5.91032
G1 X162.176 Y85.314 E5.93007
G1 X162.618 Y85.284 E5.94396
G1 X163.257 Y85.341 E5.96408
G1 X163.950 Y85.508 E5.98645
G1 X164.606 Y85.874 E6.00999
G1 X164.781 Y86.025 E6.01725
G1 X165.201 Y85.729 E6.03337
G1 X165.756 Y85.455 E6.05275
G1 X166.401 Y85.325 E6.07339
G1 X166.872 Y85.282 E6.08823
G1 X167.520 Y85.346 E6.10864
G1 X167.837 Y85.428 E6.11891
G1 X170.985 Y85.372 E6.21762
G1 X170.788 Y85.753 F7200.000
G1 F1200.000
G1 X171.493 Y87.581 E6.27906
G1 X172.525 Y87.581 E6.31143
G1 X173.184 Y85.764 E6.37204
G1 X176.322 Y85.764 E6.47042
G1 X173.201 Y93.892 E6.74343
G1 X170.899 Y93.892 E6.81558
G1 X169.579 Y90.663 E6.92496
G1 X169.378 Y91.027 E6.93798
G1 X169.119 Y91.386 E6.95189
G1 X168.788 Y91.685 E6.96585
G1 X168.429 Y91.937 E6.97961
G1 X168.045 Y92.111 E6.99285
G1 X167.661 Y92.242 E7.00556
G1 X167.262 Y92.310 E7.01825
G1 X166.864 Y92.340 E7.03076
G1 X166.413 Y92.308 E7.04494
G1 X165.937 Y92.216 E7.06014
G1 X165.481 Y92.020 E7.07571
G1 X165.018 Y91.735 E7.09275
G1 X164.776 Y91.462 E7.10418
G1 X164.417 Y91.787 E7.11938
G1 X163.855 Y92.120 E7.13985
G1 X163.245 Y92.280 E7.15961
G1 X162.641 Y92.343 E7.17865
G1 X162.048 Y92.280 E7.19734
G1 X161.454 Y92.122 E7.21663
G1 X160.920 Y91.811 E7.23602
G1 X160.843 Y91.748 E7.23912
G1 X160.848 Y93.892 E7.30635
G1 X157.980 Y93.892 E7.39629
G1 X157.982 Y91.715 E7.46454
G1 X157.871 Y91.806 E7.46907
G1 X157.326 Y92.122 E7.48879
G1 X156.721 Y92.280 E7.50839
G1 X156.118 Y92.343 E7.52743
G1 X155.525 Y92.280 E7.54612
G1 X154.930 Y92.122 E7.56541
G1 X154.396 Y91.811 E7.58480
G1 X154.290 Y91.724 E7.58910
G1 X154.283 Y92.295 E7.60701
G1 X152.810 Y92.183 E7.65333
G1 X152.305 Y92.107 E7.66934
G1 X151.758 Y92.330 E7.68787
G1 X150.964 Y92.202 E7.71309
G1 X150.902 Y92.176 E7.71518
G1 X150.544 Y92.709 E7.73532
G1 X149.631 Y93.925 E7.78300
G1 X147.785 Y93.924 E7.84087
G1 X146.847 Y92.678 E7.88976
G1 X146.600 Y92.268 E7.90478
G1 X145.338 Y92.199 E7.94442
G1 X144.754 Y92.083 E7.96309
G1 X144.593 Y92.187 E7.96910
G1 X143.900 Y92.324 E7.99125
G1 X143.520 Y92.319 E8.00318
G1 X143.153 Y92.268 E8.01479
G1 X142.804 Y92.149 E8.02637
G1 X142.515 Y92.010 E8.03640
G1 X142.208 Y92.151 E8.04700
G1 X141.881 Y92.246 E8.05768
G1 X141.290 Y92.343 E8.07646
G1 X140.815 Y92.309 E8.09138
G1 X140.347 Y92.208 E8.10639
G1 X139.910 Y91.986 E8.12176
G1 X139.461 Y91.658 E8.13921
G1 X139.286 Y91.387 E8.14931
G1 X138.774 Y91.806 E8.17003
G1 X138.230 Y92.122 E8.18977
G1 X137.624 Y92.280 E8.20938
G1 X137.021 Y92.343 E8.22841
G1 X136.427 Y92.280 E8.24712
G1 X135.829 Y92.121 E8.26654
G1 X135.614 Y91.993 E8.27438
G1 X135.617 Y92.208 E8.28113
G1 X135.074 Y92.219 E8.29818
G1 X135.074 Y92.851 E8.31802
G1 X133.295 Y93.925 E8.38318
G1 X132.210 Y93.313 E8.42222
G1 X132.215 Y92.117 E8.45970
G1 X131.492 Y92.160 E8.48241
G1 X130.844 Y92.122 E8.50278
G1 X130.332 Y92.330 E8.52010
G1 X129.538 Y92.202 E8.54532
G1 X129.079 Y92.008 E8.56094
G1 X128.916 Y91.855 E8.56796
G1 X128.369 Y92.156 E8.58755
G1 X127.807 Y92.290 E8.60567
G1 X127.257 Y92.342 E8.62298
G1 X126.666 Y92.282 E8.64159
G1 X126.068 Y92.131 E8.66096
G1 X125.526 Y91.827 E8.68043
G1 X125.014 Y91.425 E8.70084
G1 X124.621 Y90.864 E8.72231
G1 X124.336 Y90.283 E8.74260
G1 X124.204 Y89.659 E8.76261
G1 X124.161 Y89.085 E8.78065
G1 X124.175 Y88.646 E8.79442
G1 X124.226 Y88.192 E8.80874
G1 X124.344 Y87.741 E8.82336
G1 X124.521 Y87.264 E8.83930
G1 X124.760 Y86.893 E8.85316
G1 X125.025 Y86.566 E8.86637
G1 X125.347 Y86.294 E8.87956
G1 X125.691 Y86.063 E8.89257
G1 X126.070 Y85.892 E8.90559
G1 X126.464 Y85.757 E8.91865
G1 X126.926 Y85.687 E8.93330
G1 X127.273 Y85.662 E8.94422
G1 X127.853 Y85.718 E8.96248
G1 X128.455 Y85.868 E8.98192
G1 X129.001 Y86.171 E9.00151
G1 X129.524 Y86.581 E9.02235
G1 X129.922 Y87.169 E9.04461
G1 X130.023 Y87.387 E9.05215
G1 X130.044 Y85.717 E9.10451
G1 X131.569 Y85.802 E9.15238
G1 X132.152 Y85.907 E9.17097
G1 X132.691 Y85.755 E9.18855
G1 X133.478 Y85.737 E9.21323
G1 X134.111 Y85.945 E9.23411
G1 X134.579 Y86.302 E9.25256
G1 X134.756 Y86.569 E9.26260
G1 X135.092 Y86.241 E9.27733
G1 X135.559 Y85.975 E9.29418
G1 X136.036 Y85.780 E9.31033
G1 X136.598 Y85.689 E9.32819
G1 X136.993 Y85.662 E9.34059
G1 X137.575 Y85.715 E9.35891
G1 X138.186 Y85.861 E9.37863
G1 X138.745 Y86.166 E9.39858
G1 X138.828 Y86.230 E9.40186
G1 X138.821 Y85.764 E9.41646
G1 X146.864 Y85.764 E9.66866
G1 X146.859 Y86.236 E9.68347
G1 X147.117 Y86.063 E9.69323
G1 X147.496 Y85.892 E9.70626
G1 X147.890 Y85.757 E9.71932
G1 X148.352 Y85.687 E9.73396
G1 X148.699 Y85.662 E9.74488
G1 X149.279 Y85.718 E9.76315
G1 X149.880 Y85.868 E9.78259
G1 X150.427 Y86.171 E9.80218
G1 X150.950 Y86.581 E9.82301
G1 X151.347 Y87.169 E9.84527
G1 X151.448 Y87.385 E9.85276
G1 X151.449 Y85.763 E9.90361
G1 X154.337 Y85.765 E9.99416
G1 X154.327 Y86.163 E10.00663
G1 X154.656 Y85.975 E10.01850
G1 X155.133 Y85.780 E10.03464
G1 X155.695 Y85.689 E10.05250
G1 X156.090 Y85.662 E10.06490
G1 X156.672 Y85.715 E10.08323
G1 X157.283 Y85.861 E10.10294
G1 X157.841 Y86.165 E10.12287
G1 X157.980 Y86.273 E10.12838
G1 X157.979 Y85.763 E10.14436
G1 X160.870 Y85.766 E10.23501
G1 X160.860 Y86.158 E10.24729
G1 X161.180 Y85.975 E10.25885
G1 X161.657 Y85.780 E10.27499
G1 X162.219 Y85.689 E10.29285
G1 X162.614 Y85.662 E10.30525
G1 X163.196 Y85.715 E10.32358
G1 X163.812 Y85.862 E10.34345
G1 X164.389 Y86.184 E10.36416
G1 X164.805 Y86.544 E10.38140
G1 X164.933 Y86.380 E10.38793
G1 X165.395 Y86.054 E10.40565
G1 X165.879 Y85.815 E10.42257
G1 X166.456 Y85.699 E10.44103
G1 X166.871 Y85.661 E10.45410
G1 X167.454 Y85.719 E10.47249
G1 X167.793 Y85.806 E10.48345
G1 X170.728 Y85.754 E10.57549
G1 X170.531 Y86.134 F7200.000
G1 F1200.000
G1 X171.234 Y87.958 E10.63678
G1 X172.790 Y87.958 E10.68555
G1 X173.449 Y86.141 E10.74616
G1 X175.773 Y86.141 E10.81905
G1 X172.941 Y93.515 E11.06672
G1 X171.153 Y93.515 E11.12281
G1 X169.498 Y89.470 E11.25984
G1 X169.468 Y89.738 E11.26830
G1 X169.372 Y90.115 E11.28048
G1 X169.240 Y90.497 E11.29316
G1 X169.059 Y90.824 E11.30489
G1 X168.836 Y91.133 E11.31684
G1 X168.553 Y91.390 E11.32882
G1 X168.242 Y91.608 E11.34073
G1 X167.906 Y91.760 E11.35230
G1 X167.568 Y91.876 E11.36349
G1 X167.216 Y91.936 E11.37467
G1 X166.863 Y91.962 E11.38577
G1 X166.462 Y91.933 E11.39839
G1 X166.048 Y91.854 E11.41159
G1 X165.655 Y91.684 E11.42502
G1 X165.263 Y91.443 E11.43944
G1 X164.959 Y91.100 E11.45384
G1 X164.778 Y90.804 E11.46470
G1 X164.636 Y91.081 E11.47447
G1 X164.192 Y91.482 E11.49324
G1 X163.708 Y91.769 E11.51086
G1 X163.178 Y91.908 E11.52806
G1 X162.642 Y91.964 E11.54496
G1 X162.117 Y91.908 E11.56150
G1 X161.600 Y91.771 E11.57829
G1 X161.136 Y91.500 E11.59513
G1 X160.702 Y91.144 E11.61273
G1 X160.464 Y90.782 E11.62631
G1 X160.470 Y93.515 E11.71201
G1 X158.357 Y93.515 E11.77826
G1 X158.361 Y90.737 E11.86536
G1 X158.099 Y91.133 E11.88024
G1 X157.656 Y91.495 E11.89821
G1 X157.182 Y91.770 E11.91538
G1 X156.654 Y91.908 E11.93249
G1 X156.118 Y91.964 E11.94938
G1 X155.593 Y91.908 E11.96592
G1 X155.076 Y91.771 E11.98271
G1 X154.612 Y91.500 E11.99955
G1 X154.178 Y91.144 E12.01715
G1 X153.923 Y90.757 E12.03168
G1 X153.911 Y91.888 E12.06716
